X: 4690
T: Boys From Chicago, The
R: reel
M: 4/4
K: Eminor
|:Be ~e2 BAGA|BAGF EDB,D|EFGA BABd|edBG {AB} A2 GA|
Be ~e2 BAGA|BAGF EDB,D|EFGA Bgfg|1 edBG E4:|2 edBG E3A||
|:Be ~e2 Bege|dA ~A2 dAfa|ge (3fed edBA|Bgfd e2 ga|
be ~e2 Bege|dA ~A2 dAfa|1 gefd edBA|Bgfd ~e3z:|2 gefd edBd|edBG E3z||

